X: 1069
T: Islander's Lament (A31)
N: page A31
N: heptatonic
N: matches 350
C: Ray Johnson (Newfoundland)
M: 3/4
L: 1/8
K: D
A,2|"D"D3 D D2|D F3 A2|"G" G3 G G2|"Em"GB3 dB|"D"Ad3F2|"Bm"Fd3F2|
"E"F3ED2|"A"E4A,2|"D"D3D D2|D F3 A2|"G"G3 G G2|"Em"G B3 dB|
"D"Ad3 F2|"Bm"Fd3F2|"A"E3AF2|"D"D4:|df|"D"f3d f2|"A"e3c e2|
"G"d3ed2|"A"c2B2A2|"G"B3cd2|"D"Ad3F2|"E"F3ED2|"A"E4 de|"D"f3d f2|
"A"e3c e2|"G"d3ed2|"A"c2B2A2|"G"B3c d2|"D"Ad3F2|"A"E3AF2|"D"D4|
